X: 437
T:The Concert Reel
M:4/4
L:1/8
R:Reel
Z:Jim DiCarlo
Z:abc reconstructed Steve Mansfield
N:Posted to the woodenflute mailing list September 2001
K:G
|A3B AE~E2|GABG A2ge|dBAB ~G3B|d2eB dBAc|
|BAGB AE~E2|GABG ABcd|ea~a2 gedB|GBdB BA~A2:|
|eaag eaag|~e3f gedB|degb a2ga|bgab gedg|
|eaag eaag|~e3f gedB|g2fg edge|dBGA BA~A2:|
<end>
<start>
